Slogo.svg

<?xml version="1.0" encoding="UTF-8"?>
<svg version="1.1" viewBox="0 0 300 300" width="340" height="340" xmlns="http://www.w3.org/2000/svg">
  <defs>
    <filter id="shadow" x="-20%" y="-20%" width="140%" height="140%">
      <feGaussianBlur in="SourceAlpha" stdDeviation="5"/>
      <feOffset dx="5" dy="5" result="offsetblur"/>
      <feFlood flood-color="rgba(0,0,0,0.3)"/>
      <feComposite in2="offsetblur" operator="in"/>
      <feMerge>
        <feMergeNode/>
        <feMergeNode in="SourceGraphic"/>
      </feMerge>
    </filter>
  </defs>
  <rect x="20" y="20" width="260" height="260" rx="50" ry="50" fill="#B8B8B8" stroke="none" filter="url(#shadow)"/>
  <path transform="translate(150,50) scale(0.13)" d="m0 0h42l31 3 33 5 29 6 26 7 26 9 34 15 21 11 18 11 25 17 26 20 13 11 13 12 22 22 9 11 11 13 27 36 9 13 15 22 8 11 1 4-10 6-16 8-27 16-22 13-29 17-15 9-17 10-20 12-22 13-7 4-5-1-8-13-8-14-11-16-14-19-9-10-7-8-13-13-11-9-16-11-16-9-23-10-29-8-18-3-27-2h-42l-21 2-25 5-20 6-23 9-18 10-15 10-16 12-9 8-7 8-10 11-9 13-10 19-7 17-6 20-3 20v31l2 18 5 16 13 25 9 14 11 13 18 18 13 10 23 16 27 15 22 11 70 29 35 14 64 26 29 12 35 16 26 12 22 12 24 14 14 8 34 23 12 9 14 11 22 18 8 8 8 7 15 15 7 8 13 16 12 16 11 17 9 15 8 14 11 24 12 34 6 21 6 26 5 24 3 24 1 15v65l-2 28-4 28-6 31-5 19-8 26-9 25-11 25-13 25-16 27-12 17-14 19-9 11-10 11-7 8-12 13-8 7-10 10-11 9-16 13-11 8-18 13-16 10-18 10-16 9-24 11-26 10-19 7-29 8-42 9-31 4-43 4-22 1-39-3-43-5-28-5-23-5-33-9-29-11-21-9-21-10-20-12-16-10-11-8-17-13-10-8-11-9-33-33-9-11-11-14-14-19-15-23-10-17-13-24-8-17-10-24-9-24-9-28-7-26-13-52-3-15v-5l12-4 115-26 64-14 39-8h6l4 36 5 25 9 39 6 21 8 22 11 23 8 13 16 21 9 10 16 16 16 12 15 10 21 11 26 10 26 8 27 5 20 2h33l28-3 29-6 24-7 21-9 23-12 16-11 10-8 12-11 11-11 7-8 10-12 10-15 9-16 10-21 7-19 8-32 3-17 2-34v-12l-5-42-5-23-6-18-8-18-6-11-12-18-11-14-20-20-11-9-14-11-30-20-17-10-18-10-32-16-20-9-33-14-93-38-40-17-18-8-33-16-18-10-21-12-19-12-22-15-28-21-11-10-8-7-15-14-8-8-7-8-10-11-7-9-10-13-17-26-9-16-11-22-9-23-8-22-6-29-4-23-2-20v-52l3-26 7-37 7-26 8-23 9-21 15-29 20-30 9-12 9-10 7-8 9-10 26-26 11-9 11-10 16-12 18-13 18-11 19-11 19-10 36-15 34-11 49-11 45-7z" fill="#007A72"/>
</svg>

<?xml version="1.0" encoding="UTF-8" standalone="no" ?>
<!DOCTYPE svg PUBLIC "-//W3C//DTD SVG 1.1//EN" "http://www.w3.org/Graphics/SVG/1.1/DTD/svg11.dtd">
<svg xmlns="http://www.w3.org/2000/svg" xmlns:xlink="http://www.w3.org/1999/xlink" version="1.1" width="1080" height="1080" viewBox="0 0 1080 1080" xml:space="preserve">
<desc>Created with Fabric.js 5.2.4</desc>
<defs>
</defs>
<g transform="matrix(1 0 0 1 540 540)" id="77ad3177-1b40-4d72-838b-186c17cb45ae"  >
<rect style="stroke: none; stroke-width: 1; stroke-dasharray: none; stroke-linecap: butt; stroke-dashoffset: 0; stroke-linejoin: miter; stroke-miterlimit: 4; fill: rgb(255,255,255); fill-rule: nonzero; opacity: 1; visibility: hidden;" vector-effect="non-scaling-stroke"  x="-540" y="-540" rx="0" ry="0" width="1080" height="1080" />
</g>
<g transform="matrix(1 0 0 1 540 540)" id="92587548-054e-4f25-8aec-f9732ff4eb22"  >
</g>
<g transform="matrix(2.36 0 0 2.04 541.69 573.96)"  >
<rect style="stroke: none; stroke-width: 1; stroke-dasharray: none; stroke-linecap: butt; stroke-dashoffset: 0; stroke-linejoin: miter; stroke-miterlimit: 4; fill: rgb(184,184,184); fill-rule: nonzero; opacity: 1;" vector-effect="non-scaling-stroke"  x="-280" y="-130" rx="50" ry="50" width="560" height="260" />
</g>
<g transform="matrix(0.27 0 0 0.27 142.18 580.74)"  >
<path style="stroke: none; stroke-width: 1; stroke-dasharray: none; stroke-linecap: butt; stroke-dashoffset: 0; stroke-linejoin: miter; stroke-miterlimit: 4; fill: rgb(0,122,114); fill-rule: nonzero; opacity: 1;" vector-effect="non-scaling-stroke"  transform=" translate(15, -793.5)" d="M 0 0 L 42 0 L 73 3 L 106 8 L 135 14 L 161 21 L 187 30 L 221 45 L 242 56 L 260 67 L 285 84 L 311 104 L 324 115 L 337 127 L 359 149 L 368 160 L 379 173 L 406 209 L 415 222 L 430 244 L 438 255 L 439 259 L 429 265 L 413 273 L 386 289 L 364 302 L 335 319 L 320 328 L 303 338 L 283 350 L 261 363 L 254 367 L 249 366 L 241 353 L 233 339 L 222 323 L 208 304 L 199 294 L 192 286 L 179 273 L 168 264 L 152 253 L 136 244 L 113 234 L 84 226 L 66 223 L 39 221 L -3 221 L -24 223 L -49 228 L -69 234 L -92 243 L -110 253 L -125 263 L -141 275 L -150 283 L -157 291 L -167 302 L -176 315 L -186 334 L -193 351 L -199 371 L -202 391 L -202 422 L -200 440 L -195 456 L -182 481 L -173 495 L -162 508 L -144 526 L -131 536 L -108 552 L -81 567 L -59 578 L 11 607 L 46 621 L 110 647 L 139 659 L 174 675 L 200 687 L 222 699 L 246 713 L 260 721 L 294 744 L 306 753 L 320 764 L 342 782 L 350 790 L 358 797 L 373 812 L 380 820 L 393 836 L 405 852 L 416 869 L 425 884 L 433 898 L 444 922 L 456 956 L 462 977 L 468 1003 L 473 1027 L 476 1051 L 477 1066 L 477 1131 L 475 1159 L 471 1187 L 465 1218 L 460 1237 L 452 1263 L 443 1288 L 432 1313 L 419 1338 L 403 1365 L 391 1382 L 377 1401 L 368 1412 L 358 1423 L 351 1431 L 339 1444 L 331 1451 L 321 1461 L 310 1470 L 294 1483 L 283 1491 L 265 1504 L 249 1514 L 231 1524 L 215 1533 L 191 1544 L 165 1554 L 146 1561 L 117 1569 L 75 1578 L 44 1582 L 1 1586 L -21 1587 L -60 1584 L -103 1579 L -131 1574 L -154 1569 L -187 1560 L -216 1549 L -237 1540 L -258 1530 L -278 1518 L -294 1508 L -305 1500 L -322 1487 L -332 1479 L -343 1470 L -376 1437 L -385 1426 L -396 1412 L -410 1393 L -425 1370 L -435 1353 L -448 1329 L -456 1312 L -466 1288 L -475 1264 L -484 1236 L -491 1210 L -504 1158 L -507 1143 L -507 1138 L -495 1134 L -380 1108 L -316 1094 L -277 1086 L -271 1086 L -267 1122 L -262 1147 L -253 1186 L -247 1207 L -239 1229 L -228 1252 L -220 1265 L -204 1286 L -195 1296 L -179 1312 L -163 1324 L -148 1334 L -127 1345 L -101 1355 L -75 1363 L -48 1368 L -28 1370 L 5 1370 L 33 1367 L 62 1361 L 86 1354 L 107 1345 L 130 1333 L 146 1322 L 156 1314 L 168 1303 L 179 1292 L 186 1284 L 196 1272 L 206 1257 L 215 1241 L 225 1220 L 232 1201 L 240 1169 L 243 1152 L 245 1118 L 245 1106 L 240 1064 L 235 1041 L 229 1023 L 221 1005 L 215 994 L 203 976 L 192 962 L 172 942 L 161 933 L 147 922 L 117 902 L 100 892 L 82 882 L 50 866 L 30 857 L -3 843 L -96 805 L -136 788 L -154 780 L -187 764 L -205 754 L -226 742 L -245 730 L -267 715 L -295 694 L -306 684 L -314 677 L -329 663 L -337 655 L -344 647 L -354 636 L -361 627 L -371 614 L -388 588 L -397 572 L -408 550 L -417 527 L -425 505 L -431 476 L -435 453 L -437 433 L -437 381 L -434 355 L -427 318 L -420 292 L -412 269 L -403 248 L -388 219 L -368 189 L -359 177 L -350 167 L -343 159 L -334 149 L -308 123 L -297 114 L -286 104 L -270 92 L -252 79 L -234 68 L -215 57 L -196 47 L -160 32 L -126 21 L -77 10 L -32 3 z" stroke-linecap="round" />
</g>
<g transform="matrix(3.2 0 0 3.2 761.7 577.97)" style=""  >
		<text xml:space="preserve" font-family="Arial, sans-serif" font-size="40" font-style="normal" font-weight="bold" style="stroke: none; stroke-width: 1; stroke-dasharray: none; stroke-linecap: butt; stroke-dashoffset: 0; stroke-linejoin: miter; stroke-miterlimit: 4; fill: rgb(46,62,61); fill-rule: nonzero; opacity: 1; white-space: pre;" ><tspan x="-117.42" y="12.57" >Push to Talk</tspan></text>
</g>
</svg>
